icon-themes/breeze_svg/cmd/sc_pushbutton.svg

<svg viewBox="0 0 16 16" xmlns="http://www.w3.org/2000/svg"><path d="m13 5v5c0 .554007-.445992 1-1 1h-9c0 .554007.4459918 1 1 1h9c.554008 0 1-.445993 1-1v-5c0-.5540068-.445992-1-1-1z" fill="#b3b3b3"/><path d="m3 4c-.5540082 0-1 .4459932-1 1v5c0 .554007.4459918 1 1 1h9c.554008 0 1-.445993 1-1v-5c0-.5540068-.445992-1-1-1zm7 2h1v3h-5v1l-2-1.5 2-1.5v1h4z" fill="#4d4d4d"/></svg>

<svg xmlns="http://www.w3.org/2000/svg" viewBox="0 0 16 16">
 <path 
     style="fill:#b3b3b3" 
     d="M 13 5 L 13 10 C 13 10.554007 12.554008 11 12 11 L 3 11 C 3 11.554007 3.4459918 12 4 12 L 13 12 C 13.554008 12 14 11.554007 14 11 L 14 6 C 14 5.4459932 13.554008 5 13 5 z "
     />
 <path 
     style="fill:#4d4d4d" 
     d="M 3 4 C 2.4459918 4 2 4.4459932 2 5 L 2 10 C 2 10.554007 2.4459918 11 3 11 L 12 11 C 12.554008 11 13 10.554007 13 10 L 13 5 C 13 4.4459932 12.554008 4 12 4 L 3 4 z M 10 5.5 L 11 5.5 L 11 8.5 L 6 8.5 L 6 9.5 L 4 8 L 6 6.5 L 6 7.5 L 10 7.5 L 10 5.5 z "
     />
 </svg>
